TileServer und Tiles/svg/9/15_12.svg

<?xml version='1.0' encoding='UTF-8' standalone='no'?>
<svg xmlns="http://www.w3.org/2000/svg" width="497pt" viewBox="0 0 497 279" xmlns:xlink="http://www.w3.org/1999/xlink" height="279pt">
 <defs style="stroke:none;" overflow="visible">
  <path id="glyph0-4" d="M 4.015625 -5.359375 L 4.984375 -5.359375 L 2.6875 -2.78125 L 5.171875 0 L 4.15625 0 L 1.734375 -2.71875 L 1.734375 0 L 0.84375 0 L 0.84375 -5.359375 L 1.734375 -5.359375 L 1.734375 -2.765625 Z M 4.015625 -5.359375 "/>
  <path id="glyph0-3" d="M 3 0.09375 C 2.53125 0.09375 2.109375 0 1.734375 -0.1875 C 1.367188 -0.382812 1.078125 -0.6875 0.859375 -1.09375 C 0.648438 -1.5 0.546875 -2.019531 0.546875 -2.65625 C 0.546875 -3.3125 0.65625 -3.84375 0.875 -4.25 C 1.09375 -4.664062 1.390625 -4.96875 1.765625 -5.15625 C 2.148438 -5.351562 2.582031 -5.453125 3.0625 -5.453125 C 3.332031 -5.453125 3.59375 -5.425781 3.84375 -5.375 C 4.101562 -5.320312 4.3125 -5.253906 4.46875 -5.171875 L 4.203125 -4.4375 C 4.035156 -4.5 3.84375 -4.554688 3.625 -4.609375 C 3.414062 -4.660156 3.222656 -4.6875 3.046875 -4.6875 C 1.984375 -4.6875 1.453125 -4.007812 1.453125 -2.65625 C 1.453125 -2.007812 1.582031 -1.515625 1.84375 -1.171875 C 2.101562 -0.828125 2.484375 -0.65625 2.984375 -0.65625 C 3.285156 -0.65625 3.546875 -0.6875 3.765625 -0.75 C 3.984375 -0.8125 4.1875 -0.882812 4.375 -0.96875 L 4.375 -0.1875 C 4.195312 -0.09375 4 -0.0234375 3.78125 0.015625 C 3.5625 0.0664062 3.300781 0.09375 3 0.09375 Z M 3 0.09375 "/>
  <path id="glyph0-2" d="M 3.40625 -5.453125 C 4.0625 -5.453125 4.585938 -5.222656 4.984375 -4.765625 C 5.390625 -4.304688 5.59375 -3.613281 5.59375 -2.6875 C 5.59375 -1.769531 5.390625 -1.078125 4.984375 -0.609375 C 4.585938 -0.140625 4.054688 0.09375 3.390625 0.09375 C 2.972656 0.09375 2.628906 0.015625 2.359375 -0.140625 C 2.085938 -0.296875 1.878906 -0.476562 1.734375 -0.6875 L 1.671875 -0.6875 C 1.679688 -0.570312 1.691406 -0.425781 1.703125 -0.25 C 1.722656 -0.0703125 1.734375 0.078125 1.734375 0.203125 L 1.734375 2.40625 L 0.84375 2.40625 L 0.84375 -5.359375 L 1.5625 -5.359375 L 1.6875 -4.625 L 1.734375 -4.625 C 1.890625 -4.863281 2.097656 -5.0625 2.359375 -5.21875 C 2.617188 -5.375 2.96875 -5.453125 3.40625 -5.453125 Z M 3.234375 -4.71875 C 2.691406 -4.71875 2.304688 -4.5625 2.078125 -4.25 C 1.859375 -3.945312 1.742188 -3.484375 1.734375 -2.859375 L 1.734375 -2.6875 C 1.734375 -2.03125 1.835938 -1.519531 2.046875 -1.15625 C 2.265625 -0.800781 2.671875 -0.625 3.265625 -0.625 C 3.585938 -0.625 3.851562 -0.710938 4.0625 -0.890625 C 4.269531 -1.078125 4.425781 -1.320312 4.53125 -1.625 C 4.632812 -1.9375 4.6875 -2.296875 4.6875 -2.703125 C 4.6875 -3.316406 4.566406 -3.804688 4.328125 -4.171875 C 4.097656 -4.535156 3.734375 -4.71875 3.234375 -4.71875 Z M 3.234375 -4.71875 "/>
  <path id="glyph0-1" d="M 7.203125 -3.578125 C 7.203125 -2.835938 7.078125 -2.191406 6.828125 -1.640625 C 6.578125 -1.085938 6.207031 -0.660156 5.71875 -0.359375 C 5.226562 -0.0546875 4.625 0.09375 3.90625 0.09375 C 3.164062 0.09375 2.550781 -0.0546875 2.0625 -0.359375 C 1.570312 -0.660156 1.207031 -1.085938 0.96875 -1.640625 C 0.726562 -2.203125 0.609375 -2.851562 0.609375 -3.59375 C 0.609375 -4.320312 0.726562 -4.957031 0.96875 -5.5 C 1.207031 -6.050781 1.570312 -6.476562 2.0625 -6.78125 C 2.550781 -7.09375 3.171875 -7.25 3.921875 -7.25 C 4.628906 -7.25 5.226562 -7.097656 5.71875 -6.796875 C 6.207031 -6.492188 6.578125 -6.066406 6.828125 -5.515625 C 7.078125 -4.960938 7.203125 -4.316406 7.203125 -3.578125 Z M 1.5625 -3.578125 C 1.5625 -2.679688 1.75 -1.972656 2.125 -1.453125 C 2.507812 -0.941406 3.101562 -0.6875 3.90625 -0.6875 C 4.71875 -0.6875 5.3125 -0.941406 5.6875 -1.453125 C 6.0625 -1.972656 6.25 -2.679688 6.25 -3.578125 C 6.25 -4.484375 6.0625 -5.1875 5.6875 -5.6875 C 5.3125 -6.195312 4.722656 -6.453125 3.921875 -6.453125 C 3.109375 -6.453125 2.507812 -6.195312 2.125 -5.6875 C 1.75 -5.1875 1.5625 -4.484375 1.5625 -3.578125 Z M 1.5625 -3.578125 "/>
  <path id="glyph0-0" d="M 0.9375 0 L 0.9375 -7.140625 L 5.046875 -7.140625 L 5.046875 0 Z M 1.453125 -0.515625 L 4.546875 -0.515625 L 4.546875 -6.625 L 1.453125 -6.625 Z M 1.453125 -0.515625 "/>
 </defs>
 <image width="497" xlink:href="svg/9/15_12.jpg" height="279"/>
 <g>
  <path d="M 436.507812 123.5625 C 436.507812 124.304688 436.382812 124.949219 436.132812 125.5 C 435.882812 126.054688 435.511719 126.480469 435.023438 126.78125 C 434.53125 127.085938 433.929688 127.234375 433.210938 127.234375 C 432.46875 127.234375 431.855469 127.085938 431.367188 126.78125 C 430.875 126.480469 430.511719 126.054688 430.273438 125.5 C 430.03125 124.9375 429.914062 124.289062 429.914062 123.546875 C 429.914062 122.820312 430.03125 122.183594 430.273438 121.640625 C 430.511719 121.089844 430.875 120.664062 431.367188 120.359375 C 431.855469 120.046875 432.476562 119.890625 433.226562 119.890625 C 433.933594 119.890625 434.53125 120.042969 435.023438 120.34375 C 435.511719 120.648438 435.882812 121.074219 436.132812 121.625 C 436.382812 122.179688 436.507812 122.824219 436.507812 123.5625 Z M 430.867188 123.5625 C 430.867188 124.460938 431.054688 125.167969 431.429688 125.6875 C 431.8125 126.199219 432.40625 126.453125 433.210938 126.453125 C 434.023438 126.453125 434.617188 126.199219 434.992188 125.6875 C 435.367188 125.167969 435.554688 124.460938 435.554688 123.5625 C 435.554688 122.65625 435.367188 121.953125 434.992188 121.453125 C 434.617188 120.945312 434.027344 120.6875 433.226562 120.6875 C 432.414062 120.6875 431.8125 120.945312 431.429688 121.453125 C 431.054688 121.953125 430.867188 122.65625 430.867188 123.5625 Z M 430.867188 123.5625 " transform=" rotate(  340 442.588 124.141) " style="fill:none;stroke-width:3;stroke-linecap:butt;stroke-linejoin:round;stroke:rgb(100%,100%,100%);stroke-opacity:0.6;stroke-miterlimit:10;"/>
  <path d="M 440.519531 121.6875 C 441.175781 121.6875 441.699219 121.917969 442.097656 122.375 C 442.503906 122.835938 442.707031 123.527344 442.707031 124.453125 C 442.707031 125.371094 442.503906 126.0625 442.097656 126.53125 C 441.699219 127 441.167969 127.234375 440.503906 127.234375 C 440.085938 127.234375 439.742188 127.15625 439.472656 127 C 439.199219 126.84375 438.992188 126.664062 438.847656 126.453125 L 438.785156 126.453125 C 438.792969 126.570312 438.804688 126.714844 438.816406 126.890625 C 438.835938 127.070312 438.847656 127.21875 438.847656 127.34375 L 438.847656 129.546875 L 437.957031 129.546875 L 437.957031 121.78125 L 438.675781 121.78125 L 438.800781 122.515625 L 438.847656 122.515625 C 439.003906 122.277344 439.210938 122.078125 439.472656 121.921875 C 439.730469 121.765625 440.082031 121.6875 440.519531 121.6875 Z M 440.347656 122.421875 C 439.804688 122.421875 439.417969 122.578125 439.191406 122.890625 C 438.972656 123.195312 438.855469 123.65625 438.847656 124.28125 L 438.847656 124.453125 C 438.847656 125.109375 438.949219 125.621094 439.160156 125.984375 C 439.378906 126.339844 439.785156 126.515625 440.378906 126.515625 C 440.699219 126.515625 440.964844 126.429688 441.175781 126.25 C 441.382812 126.0625 441.539062 125.820312 441.644531 125.515625 C 441.746094 125.203125 441.800781 124.84375 441.800781 124.4375 C 441.800781 123.824219 441.679688 123.335938 441.441406 122.96875 C 441.210938 122.605469 440.847656 122.421875 440.347656 122.421875 Z M 440.347656 122.421875 " transform=" rotate(  340 442.588 124.141) " style="fill:none;stroke-width:3;stroke-linecap:butt;stroke-linejoin:round;stroke:rgb(100%,100%,100%);stroke-opacity:0.6;stroke-miterlimit:10;"/>
  <path d="M 446.261719 127.234375 C 445.792969 127.234375 445.371094 127.140625 444.996094 126.953125 C 444.628906 126.757812 444.339844 126.453125 444.121094 126.046875 C 443.910156 125.640625 443.808594 125.121094 443.808594 124.484375 C 443.808594 123.828125 443.917969 123.296875 444.136719 122.890625 C 444.355469 122.476562 444.652344 122.171875 445.027344 121.984375 C 445.410156 121.789062 445.84375 121.6875 446.324219 121.6875 C 446.59375 121.6875 446.855469 121.714844 447.105469 121.765625 C 447.363281 121.820312 447.574219 121.886719 447.730469 121.96875 L 447.464844 122.703125 C 447.296875 122.640625 447.105469 122.585938 446.886719 122.53125 C 446.675781 122.480469 446.484375 122.453125 446.308594 122.453125 C 445.246094 122.453125 444.714844 123.132812 444.714844 124.484375 C 444.714844 125.132812 444.84375 125.625 445.105469 125.96875 C 445.363281 126.3125 445.746094 126.484375 446.246094 126.484375 C 446.546875 126.484375 446.808594 126.453125 447.027344 126.390625 C 447.246094 126.328125 447.449219 126.257812 447.636719 126.171875 L 447.636719 126.953125 C 447.457031 127.046875 447.261719 127.117188 447.042969 127.15625 C 446.824219 127.207031 446.5625 127.234375 446.261719 127.234375 Z M 446.261719 127.234375 " transform=" rotate(  340 442.588 124.141) " style="fill:none;stroke-width:3;stroke-linecap:butt;stroke-linejoin:round;stroke:rgb(100%,100%,100%);stroke-opacity:0.6;stroke-miterlimit:10;"/>
  <path d="M 452.078125 121.78125 L 453.046875 121.78125 L 450.75 124.359375 L 453.234375 127.140625 L 452.21875 127.140625 L 449.796875 124.421875 L 449.796875 127.140625 L 448.90625 127.140625 L 448.90625 121.78125 L 449.796875 121.78125 L 449.796875 124.375 Z M 452.078125 121.78125 " transform=" rotate(  340 442.588 124.141) " style="fill:none;stroke-width:3;stroke-linecap:butt;stroke-linejoin:round;stroke:rgb(100%,100%,100%);stroke-opacity:0.6;stroke-miterlimit:10;"/>
  <g transform=" rotate(  340 442.588 124.141) " style="fill:rgb(13.333333%,13.333333%,13.333333%);fill-opacity:1;">
   <use xlink:href="#glyph0-1" y="127.140996" x="429.302846"/>
   <use xlink:href="#glyph0-2" y="127.140996" x="437.112846"/>
   <use xlink:href="#glyph0-3" y="127.140996" x="443.262846"/>
   <use xlink:href="#glyph0-4" y="127.140996" x="448.062846"/>
  </g>
 </g>
</svg>

<svg xmlns="http://www.w3.org/2000/svg" xmlns:xlink="http://www.w3.org/1999/xlink" viewBox="0 0 497 279"> <defs overflow="visible" style="stroke:none">  <path id="d" d="M4-5.4h1L2.7-2.8 5.2 0h-1L1.7-2.7V0H.8v-5.4h1v2.6Zm0 0"/>  <path id="c" d="M3 0c-.5 0-.9 0-1.3-.1-.3-.3-.6-.6-.7-.9-.4-.5-.5-1-.5-1.7 0-.6.2-1.1.5-1.5 0-.6.4-.8.8-1.1.2-.1.8-.2 1.2-.2l.8.1.7.2-.3.8-.6-.2H3c-1-.1-1.5.6-1.5 1.9 0 .7 0 1 .3 1.4.3.5.7.6 1.2.6h.8l.6-.3v.8a2 2 0 0 1-.6.2H3Zm0 0"/>  <path id="b" d="M3.4-5.5c.7 0 1.2.3 1.6.7.4.5.6 1.2.6 2.1 0 1-.2 1.7-.6 2-.4.7-1 .9-1.6.9-.4-.2-.8-.2-1-.3l-.7-.6v3.1H.8v-7.8h.8v.8h.2c.2-.4.3-.5.6-.6.2-.2.6-.3 1-.3Zm-.2.8c-.5 0-.9.1-1.1.5-.2.2-.4.7-.4 1.2v.3c0 .7.1 1.2.3 1.5.3.4.7.6 1.3.6.3 0 .6-.1.7-.4l.5-.6.2-1.1c0-.6-.1-1.1-.4-1.5-.2-.3-.6-.5-1-.5Zm0 0"/>  <path id="a" d="M7.2-3.6c0 .8-.1 1.4-.4 2-.2.5-.6 1-1 1.2-.7.4-1.3.5-2 .5S2.6-.1 2.1-.4A2.7 2.7 0 0 1 1-1.6a4.9 4.9 0 0 1-.4-2c0-.7.1-1.4.4-1.9.2-.6.6-1 1-1.3.7-.2 1.3-.5 2-.5.5 0 1.1.3 1.6.5s1 .7 1.2 1.3c.3.5.4 1.2.4 2Zm-5.6 0c0 1 .1 1.6.4 2.1.5.6 1.1.8 2 .8s1.3-.2 1.7-.8c.3-.5.5-1.2.5-2 .1-1.1 0-1.8-.4-2.3-.5-.4-1.1-.7-1.9-.7s-1.4.3-1.8.8c-.4.5-.5 1.2-.5 2.1Zm0 0"/>  <path d="M1 0v-7.1h4V0Zm.4-.5h3.1v-6.1h-3Zm.1 0"/> </defs> <image xlink:href="svg/9/15_12.jpg" width="497" height="279"/> <path d="M436.5 123.6c0 .7-.1 1.3-.4 1.9-.1.6-.6 1-1 1.3-.7.2-1.3.4-2 .4s-1.1-.1-1.7-.4a2.7 2.7 0 0 1-1.1-1.3 4.9 4.9 0 0 1-.4-2c.1-.7.1-1.3.4-1.9.2-.5.6-1 1-1.2.7-.4 1.3-.5 2.1-.5.4 0 1 .1 1.6.4.5.3 1 .8 1.1 1.3.3.6.4 1.2.4 2Zm-5.5 0c-.1.9 0 1.6.4 2 .4.7 1 1 1.8 1s1.4-.4 1.8-.9c.4-.5.6-1.2.6-2.1 0-1-.2-1.6-.6-2.1-.4-.6-1-.8-1.8-.8s-1.4.2-1.8.8c-.3.5-.4 1.2-.4 2Zm9.5-1.9c.7 0 1.2.2 1.6.7.4.4.6 1.1.6 2 0 1.1-.2 1.8-.6 2.2-.4.4-1 .6-1.6.6-.4 0-.8 0-1-.2l-.7-.5v3h-.8v-7.7h.7l.1.7.7-.5 1-.3Zm-.2.7c-.5 0-.9.2-1.1.6-.2.2-.3.7-.4 1.3v.2c0 .5.2 1.1.4 1.5.2.3.6.5 1.2.5.3 0 .6 0 .8-.3.2 0 .3-.4.4-.7l.2-1c0-.8-.1-1.3-.4-1.5-.2-.4-.6-.6-1-.6Zm6 4.8c-.5 0-1 0-1.3-.2-.4-.2-.7-.5-.9-1-.1-.4-.3-.9-.3-1.5 0-.7.2-1.2.3-1.6l1-1 1.1-.1h.9l.6.2-.2.7-.6-.2h-.6c-1 0-1.6.5-1.6 2 0 .5.1 1.1.4 1.5.3.3.6.5 1.1.5l.8-.1.6-.2v.8a2 2 0 0 1-.6.2h-.7Zm5.7-5.4h1l-2.3 2.6 2.6 2.6h-1.1l-2.4-2.6v2.7h-.9v-5.3h.9v2.6Zm0 0" style="fill:none;stroke-width:3;stroke-linecap:butt;stroke-linejoin:round;stroke:#fff;stroke-opacity:.6;stroke-miterlimit:10" transform=" rotate(  340 442.588 124.141) "/> <g style="fill:#222;fill-opacity:1" transform=" rotate(  340 442.588 124.141) ">  <use xlink:href="#a" x="429.3" y="127.1"/>  <use xlink:href="#b" x="437.1" y="127.1"/>  <use xlink:href="#c" x="443.3" y="127.1"/>  <use xlink:href="#d" x="448.1" y="127.1"/> </g></svg>
